svg/usersFill.svg

<svg width="284" height="284" viewBox="0 0 284 284" fill="none" xmlns="http://www.w3.org/2000/svg">
<path fill-rule="evenodd" clip-rule="evenodd" d="M199.917 79.333C180.569 79.333 164.83 95.581 164.83 115.551C164.83 135.522 180.569 151.77 199.917 151.77C219.263 151.77 235.002 135.522 235.002 115.551C235.002 95.581 219.263 79.333 199.917 79.333Z" fill="#1A1919"/>
<path fill-rule="evenodd" clip-rule="evenodd" d="M200.482 140.431C186.615 140.431 170.098 151.601 169.402 152.077C168.06 152.994 167.176 154.442 166.974 156.055C166.773 157.667 167.273 159.29 168.348 160.509C168.423 160.594 175.924 169.142 181.047 178.301C186.132 187.391 189.769 200.633 189.805 200.766C190.477 203.234 192.718 204.947 195.276 204.947H249.134C252.265 204.947 254.803 202.409 254.803 199.278C254.803 166.829 230.435 140.431 200.482 140.431Z" fill="#1A1919"/>
<path fill-rule="evenodd" clip-rule="evenodd" d="M180.875 223.545C180.678 187.547 158.861 157.026 128.847 146.511C143.065 137.991 152.656 122.096 152.656 103.917C152.656 76.7854 131.307 54.7114 105.065 54.7114C78.8212 54.7114 57.4702 76.7854 57.4702 103.917C57.4702 122.357 67.3382 138.452 81.8972 146.877C52.2642 157.765 30.8662 188.23 30.8662 224.041C30.8662 227.172 33.4042 229.71 36.5352 229.71H175.207C175.214 229.711 175.222 229.711 175.227 229.71C178.358 229.71 180.896 227.172 180.896 224.041C180.896 223.874 180.889 223.709 180.875 223.545Z" fill="#1A1919"/>
</svg>

<svg width="284" height="284" viewBox="0 0 284 284" xmlns="http://www.w3.org/2000/svg">
    <g fill="#1A1918" fill-rule="evenodd">
        <path d="M199.917 79.333c-19.348 0-35.087 16.248-35.087 36.218 0 19.971 15.74 36.22 35.087 36.22 19.346 0 35.085-16.249 35.085-36.22 0-19.97-15.739-36.218-35.085-36.218"/>
        <path d="M200.482 140.431c-13.867 0-30.384 11.17-31.08 11.646a5.67 5.67 0 0 0-1.054 8.432c.075.085 7.576 8.633 12.699 17.792 5.085 9.09 8.722 22.332 8.758 22.465a5.67 5.67 0 0 0 5.47 4.181h53.859a5.669 5.669 0 0 0 5.669-5.669c0-32.449-24.368-58.847-54.321-58.847"/>
        <path d="M180.875 223.546c-.197-35.998-22.014-66.52-52.028-77.034 14.218-8.52 23.81-24.415 23.81-42.594 0-27.132-21.35-49.206-47.592-49.206-26.244 0-47.595 22.074-47.595 49.206 0 18.44 9.868 34.535 24.427 42.96-29.633 10.888-51.03 41.353-51.03 77.164a5.669 5.669 0 0 0 5.668 5.669h138.672a5.669 5.669 0 0 0 5.668-6.165"/>
    </g>
</svg>
